X:79
T:Teve Clado, The
R:rfe
H: Soldate.
D:Chter played His playcd.
Z:id:hn-reel-34
M:C|
K:D
GBd 


*****************************


16200 2 0.6017663 

<start>
M:4/8
K:G
~G3F GBG~|1 GGBd egeg |ffed cBAc|e2df ecBe|
edcd eAce|Afdc BAcB|1 Afed cAec|afec dfec|d


*****************************


16300 2 1.0733697 

<start:atehtle.freelly.1
Z:id:hn-reel-46
M:C|
K:G
B2BB ~A3B|cBcA GB~B2|cBAc dcAG|FEDG BE~E2|
ED^FA ceAB|~


*****************************


16400 2 1.4319601 

<start ust tuncart version 1 (3900-)
D:Cha Jefer "Co, The Sturt "The Mutish
R:reep
Z:id:hn-reel-145
M:C|



*****************************


16500 2 1.3356189 

<start>
Hef df|e2 ed ed (3cde|fdec F2GA|
BdGB GFGB|AFDF DEDC|~D3AF EFGE|~F2GE FGAB|ADED cAFG|A2DE D2B,D|



*****************************


16600 2 1.5885495 

<starothonshe
D:Prady with thelers. Pyean Onig, The
T:Gromely Stwolly an Tennish obenn's "The Gallyn's an


*****************************


16700 2 0.5049011 

<start>
H:Set in is whasel" "Davie)
R:reel
D:Mary Bergin: (Duntman: Fedonm's Magandren
Z:id:hn-reel-76
M:


*****************************


16800 2 1.321666 

<startons:
f>ed|edBA BcBA|1 FABG BG~G2 :|2 BGBd ~g3e||
d2~B2 ~f3B|ABAG FAHB|AF~E2 DBAF|FABF EFAF|G2BG BGA


*****************************


16900 2 1.6204109 

<starhutl
~f/e/d/c/ Adec|1 dgfg fdgA:|
|:B2cd cdcd|ceec ecAd|cdec ~A2fg|afec dBGB||
P:variatiCh7
|:~G3B ~


*****************************


17000 2 1.2377782 

<start>
D>CED FDCE|GBde fdcd|cBAD ADdB|AGFA BEgB|1 dBAG FDD2:|2 dfba bagf|edde fdAF|
dcAG FDED||
F2AB cde


*****************************


17100 2 1.5270447 

<start oor in (1p-)
D:Ha glaighttimes: The "Kmorye: and Fered wwat in cow
R:reel
C:Pet the catnedz nppper


*****************************


17200 2 0.5715465 

<starhoth
dg/g/a/g/:|2 a2 eg/a/g/e/|df/a/g/e/ d2 BA||
<end>
<start>
